brandFactory_export/3.Masa/Proceso cargando _3Masa.svg

<?xml version="1.0" encoding="UTF-8"?>
<svg width="24px" height="24px" viewBox="0 0 24 24" version="1.1" xmlns="http://www.w3.org/2000/svg" xmlns:xlink="http://www.w3.org/1999/xlink">
    <title>3.Masa/Proceso cargando _3Masa</title>
    <g id="Symbols" stroke="none" stroke-width="1" fill="none" fill-rule="evenodd">
        <g id="3.Masa/Proceso-cargando-_3Masa" fill="#5CB615" fill-rule="nonzero">
            <path d="M20.4470588,12.5882353 L16.8201681,12.5882353 C16.4201681,12.5882353 16.0941176,12.2655462 16.0941176,11.8621849 C16.0941176,11.4588235 16.4168067,11.1361345 16.8201681,11.1361345 L20.4470588,11.1361345 C20.8470588,11.1361345 21.1731092,11.4588235 21.1731092,11.8621849 C21.1731092,12.2655462 20.8470588,12.5882353 20.4470588,12.5882353 Z M18.3932773,18.4672269 C18.1109244,18.7495798 17.6537815,18.7529412 17.3714286,18.4705882 L17.3680672,18.4672269 L14.8033613,15.8991597 C14.5210084,15.6168067 14.5210084,15.1563025 14.8033613,14.8739496 C15.0857143,14.5915966 15.5462185,14.5915966 15.8285714,14.8739496 L18.3932773,17.4386555 C18.6789916,17.7243697 18.6789916,18.1815126 18.3932773,18.4672269 Z M12.5882353,6.80672269 C12.5882353,7.20672269 12.2655462,7.53277311 11.8621849,7.53277311 C11.4588235,7.53277311 11.1361345,7.21008403 11.1361345,6.80672269 L11.1361345,3.17647059 C11.1361345,2.77647059 11.4588235,2.45042017 11.8621849,2.45042017 C12.2655462,2.45042017 12.5882353,2.77310924 12.5882353,3.17647059 L12.5882353,6.80672269 Z M12.487395,20.4470588 C12.487395,20.8470588 12.1647059,21.1731092 11.7613445,21.1731092 C11.3579832,21.1731092 11.0352941,20.8504202 11.0352941,20.4470588 L11.0352941,16.8168067 C11.0352941,16.4168067 11.3579832,16.0907563 11.7613445,16.0907563 C12.1647059,16.0907563 12.487395,16.4134454 12.487395,16.8168067 L12.487395,20.4470588 Z M8.74621849,15.8285714 L6.18151261,18.3966387 C5.89915966,18.6789916 5.43865546,18.6789916 5.15630252,18.3966387 C4.87394958,18.1142857 4.87394958,17.6537815 5.15630252,17.3714286 L7.7210084,14.8067227 C8.01008403,14.5310924 8.47058824,14.5445378 8.74621849,14.8336134 C9.01176471,15.1092437 9.01176471,15.5495798 8.74621849,15.8285714 Z M2.45042017,11.7613445 C2.45042017,11.3613445 2.77647059,11.0352941 3.17647059,11.0352941 L6.80672269,11.0352941 C7.20672269,11.0352941 7.53277311,11.3579832 7.53277311,11.7613445 C7.53277311,12.1647059 7.21008403,12.487395 6.80672269,12.487395 L3.17647059,12.487395 C2.77647059,12.487395 2.45042017,12.1613445 2.45042017,11.7613445 Z M14.8773109,7.79495798 L17.4420168,5.2302521 C17.7243697,4.94789916 18.1815126,4.94789916 18.4672269,5.2302521 C18.7529412,5.51260504 18.7495798,5.9697479 18.4672269,6.25546218 L15.8991597,8.82016807 C15.6168067,9.10252101 15.1596639,9.10252101 14.8739496,8.82016807 C14.594958,8.53781513 14.594958,8.08067227 14.8773109,7.79495798 L14.8773109,7.79495798 Z M11.8084034,0 C4.08403361,0 0,4.08403361 0,11.8151261 C0,19.5394958 4.08403361,23.6235294 11.8084034,23.6235294 C19.5361345,23.6235294 23.6235294,19.5394958 23.6235294,11.8151261 C23.6235294,4.08403361 19.5394958,0 11.8084034,0 Z" id="Proceso-cargando-_3Masa"></path>
        </g>
    </g>
</svg>

<svg width="24" height="24" viewBox="0 0 24 24" xmlns="http://www.w3.org/2000/svg"><path d="M20.447 12.588H16.82a.725.725 0 110-1.452h3.627a.725.725 0 110 1.452zm-2.054 5.88a.722.722 0 01-1.022.003l-.003-.004-2.565-2.568a.726.726 0 010-1.025.726.726 0 011.026 0l2.564 2.565a.724.724 0 010 1.028zM12.588 6.806a.725.725 0 11-1.452 0v-3.63a.725.725 0 111.452 0v3.63zm-.1 13.64a.725.725 0 11-1.453 0v-3.63a.725.725 0 111.452 0v3.63zM8.745 15.83l-2.564 2.568a.726.726 0 01-1.026 0 .726.726 0 010-1.026l2.565-2.564a.727.727 0 011.025.027.72.72 0 010 .995zM2.45 11.76c0-.4.326-.726.726-.726h3.63a.725.725 0 110 1.452h-3.63a.727.727 0 01-.726-.726zm12.427-3.966l2.565-2.565a.726.726 0 011.025 0 .723.723 0 010 1.025L15.9 8.82a.726.726 0 01-1.025 0 .73.73 0 01.003-1.025zM11.808 0C4.084 0 0 4.084 0 11.815c0 7.724 4.084 11.809 11.808 11.809 7.728 0 11.816-4.085 11.816-11.809C23.624 4.084 19.539 0 11.808 0z" fill="#5CB615" fill-rule="nonzero"/></svg>
